X: 20279
T: Joey Beaton's
R: reel
M: 4/4
K: Bminor
|:b|fBBA Bcde|fddc dfaf|eA (3AAA cA (3AAA|(3f^ga ea cAAb|
fBBA Bcde|fddc dfaf|eA (3AAA cA (3AAA|(3f^ga ec B3:|
|:d|BFBd BFBd|cAEA cAec|BFBd BFBd|cAec B2 Bc|
BFBd BFBd|cAEA cAec|defd faea|cAec (3BBB B||

